static/images/skills/docker.svg

<svg xmlns="http://www.w3.org/2000/svg" xml:space="preserve" style="fill-rule:evenodd;clip-rule:evenodd;stroke-linejoin:round;stroke-miterlimit:2" viewBox="0 0 1200 900"><path d="M0 0h1200v900H0z" style="fill:#28b8eb"/><path d="M73.8 50.8h11.3v11.5h5.7c2.6 0 5.3-.5 7.8-1.3 1.2-.4 2.6-1 3.8-1.7-1.6-2.1-2.4-4.7-2.6-7.3-.3-3.5.4-8.1 2.8-10.8l1.2-1.4 1.4 1.1c3.6 2.9 6.5 6.8 7.1 11.4 4.3-1.3 9.3-1 13.1 1.2l1.5.9-.8 1.6c-3.2 6.2-9.9 8.2-16.4 7.8-9.8 24.3-31 35.8-56.8 35.8-13.3 0-25.5-5-32.5-16.8l-.1-.2-1-2.1c-2.4-5.2-3.1-10.9-2.6-16.6l.2-1.7h9.6V50.8h11.3V39.6h22.5V28.3h13.5z" style="fill:#3a4d54" transform="translate(294.754 144.992)scale(4.76948)"/><path d="M110.4 55.1c.8-5.9-3.6-10.5-6.4-12.7-3.1 3.6-3.6 13.2 1.3 17.2-2.8 2.4-8.5 4.7-14.5 4.7H18.6c-.6 6.2.5 11.9 3 16.8l.8 1.5c.5.9 1.1 1.7 1.7 2.6 3 .2 5.7.3 8.2.2 4.9-.1 8.9-.7 12-1.7.5-.2.9.1 1.1.5.2.5-.1.9-.5 1.1-.4.1-.8.3-1.3.4-2.4.7-5 1.1-8.3 1.3h-.6c-1.3.1-2.7.1-4.2.1-1.6 0-3.1 0-4.9-.1 6 6.8 15.4 10.8 27.2 10.8 25 0 46.2-11.1 55.5-35.9 6.7.7 13.1-1 16-6.7-4.5-2.7-10.5-1.8-13.9-.1" style="fill:#00aada;fill-rule:nonzero" transform="translate(294.754 144.992)scale(4.76948)"/><path d="M110.4 55.1c.8-5.9-3.6-10.5-6.4-12.7-3.1 3.6-3.6 13.2 1.3 17.2-2.8 2.4-8.5 4.7-14.5 4.7h-68c-.3 9.5 3.2 16.7 9.5 21 4.9-.1 8.9-.7 12-1.7.5-.2.9.1 1.1.5.2.5-.1.9-.5 1.1-.4.1-.8.3-1.3.4-2.4.7-5.2 1.2-8.5 1.4l-.1-.1c8.5 4.4 20.8 4.3 35-1.1 15.8-6.1 30.6-17.7 40.9-30.9-.2.1-.4.1-.5.2" style="fill:#28b8eb;fill-rule:nonzero" transform="translate(294.754 144.992)scale(4.76948)"/><path d="M18.7 71.8c.4 3.3 1.4 6.4 2.9 9.3l.8 1.5c.5.9 1.1 1.7 1.7 2.6 3 .2 5.7.3 8.2.2 4.9-.1 8.9-.7 12-1.7.5-.2.9.1 1.1.5.2.5-.1.9-.5 1.1-.4.1-.8.3-1.3.4-2.4.7-5.2 1.2-8.5 1.4h-.4c-1.3.1-2.7.1-4.1.1-1.6 0-3.2 0-4.9-.1 6 6.8 15.5 10.8 27.3 10.8 21.4 0 40-8.1 50.8-26H18.7z" style="fill:#028bb8;fill-rule:nonzero" transform="translate(294.754 144.992)scale(4.76948)"/><path d="M23.5 71.8c1.3 5.8 4.3 10.4 8.8 13.5 4.9-.1 8.9-.7 12-1.7.5-.2.9.1 1.1.5.2.5-.1.9-.5 1.1-.4.1-.8.3-1.3.4-2.4.7-5.2 1.2-8.6 1.4 8.5 4.4 20.8 4.3 34.9-1.1 8.5-3.3 16.8-8.2 24.2-14.1z" style="fill:#019bc6;fill-rule:nonzero" transform="translate(294.754 144.992)scale(4.76948)"/><path d="M28.4 52.7h9.8v9.8h-9.8zm.8.8h.8v8.1h-.8zm1.4 0h.8v8.1h-.8zm1.5 0h.8v8.1h-.8zm1.5 0h.8v8.1h-.8zm1.5 0h.8v8.1h-.8zm1.5 0h.8v8.1h-.8zm3-12h9.8v9.8h-9.8zm.9.8h.8v8.1h-.8zm1.4 0h.8v8.1h-.8zm1.5 0h.8v8.1h-.8zm1.5 0h.8v8.1h-.8zm1.4 0h.8v8.1h-.8zm1.5 0h.8v8.1h-.8z" style="fill:#00acd3" transform="translate(294.754 144.992)scale(4.76948)"/><path d="M39.6 52.7h9.8v9.8h-9.8zm.9.8h.8v8.1h-.8zm1.4 0h.8v8.1h-.8zm1.5 0h.8v8.1h-.8zm1.5 0h.8v8.1h-.8zm1.4 0h.8v8.1h-.8zm1.5 0h.8v8.1h-.8z" style="fill:#23c2ee" transform="translate(294.754 144.992)scale(4.76948)"/><path d="M50.9 52.7h9.8v9.8h-9.8zm.8.8h.8v8.1h-.8zm1.5 0h.8v8.1h-.8zm1.5 0h.8v8.1h-.8zm1.4 0h.8v8.1h-.8zm1.5 0h.8v8.1h-.8zm1.5 0h.8v8.1h-.8z" style="fill:#00acd3" transform="translate(294.754 144.992)scale(4.76948)"/><path d="M50.9 41.5h9.8v9.8h-9.8zm.8.8h.8v8.1h-.8zm1.5 0h.8v8.1h-.8zm1.5 0h.8v8.1h-.8zm1.4 0h.8v8.1h-.8zm1.5 0h.8v8.1h-.8zm1.5 0h.8v8.1h-.8zm3.1 10.4H72v9.8h-9.8zm.8.8h.8v8.1H63zm1.5 0h.8v8.1h-.8zm1.4 0h.8v8.1h-.8zm1.5 0h.8v8.1h-.8zm1.5 0h.8v8.1h-.8zm1.5 0h.8v8.1h-.8z" style="fill:#23c2ee" transform="translate(294.754 144.992)scale(4.76948)"/><path d="M62.2 41.5H72v9.8h-9.8zm.8.8h.8v8.1H63zm1.5 0h.8v8.1h-.8zm1.4 0h.8v8.1h-.8zm1.5 0h.8v8.1h-.8zm1.5 0h.8v8.1h-.8zm1.5 0h.8v8.1h-.8z" style="fill:#00acd3" transform="translate(294.754 144.992)scale(4.76948)"/><path d="M62.2 30.2H72V40h-9.8zm.8.8h.8v8.1H63zm1.5 0h.8v8.1h-.8zm1.4 0h.8v8.1h-.8zm1.5 0h.8v8.1h-.8zm1.5 0h.8v8.1h-.8zm1.5 0h.8v8.1h-.8z" style="fill:#23c2ee" transform="translate(294.754 144.992)scale(4.76948)"/><path d="M73.5 52.7h9.8v9.8h-9.8zm.8.8h.8v8.1h-.8zm1.4 0h.8v8.1h-.8zm1.5 0h.8v8.1h-.8zm1.5 0h.8v8.1h-.8zm1.5 0h.8v8.1h-.8zm1.5 0h.8v8.1h-.8z" style="fill:#00acd3" transform="translate(294.754 144.992)scale(4.76948)"/><path d="M48.8 78.3c1.5 0 2.7 1.2 2.7 2.7s-1.2 2.7-2.7 2.7-2.7-1.2-2.7-2.7 1.2-2.7 2.7-2.7" style="fill:#d4eef1" transform="translate(294.754 144.992)scale(4.76948)"/><path d="M48.8 79.1c.2 0 .5 0 .7.1-.2.1-.4.4-.4.7 0 .4.4.8.8.8.3 0 .6-.2.7-.4.1.2.1.5.1.7 0 1.1-.9 1.9-1.9 1.9-1.1 0-1.9-.9-1.9-1.9s.8-1.9 1.9-1.9M1.1 72.8h125.4c-2.7-.7-8.6-1.6-7.7-5.2-5 5.7-16.9 4-20 1.2-3.4 4.9-23 3-24.3-.8-4.2 5-17.3 5-21.5 0-1.4 3.8-21 5.7-24.3.8-3 2.8-15 4.5-20-1.2 1.1 3.5-4.9 4.5-7.6 5.2" style="fill:#3a4d54" transform="translate(294.754 144.992)scale(4.76948)"/><path d="M56 97.8c-6.7-3.2-10.3-7.5-12.4-12.2-2.5.7-5.5 1.2-8.9 1.4-1.3.1-2.7.1-4.1.1-1.7 0-3.4 0-5.2-.1 6 6 13.6 10.7 27.5 10.8z" style="fill:#bfdbe0;fill-rule:nonzero" transform="translate(294.754 144.992)scale(4.76948)"/><path d="M46.1 89.9c-.9-1.3-1.8-2.8-2.5-4.3-2.5.7-5.5 1.2-8.9 1.4 2.3 1.2 5.7 2.4 11.4 2.9" style="fill:#d4eef1;fill-rule:nonzero" transform="translate(294.754 144.992)scale(4.76948)"/></svg>

<?xml version="1.0" encoding="UTF-8" standalone="no"?>
<!DOCTYPE svg PUBLIC "-//W3C//DTD SVG 1.1//EN" "http://www.w3.org/Graphics/SVG/1.1/DTD/svg11.dtd">
<svg width="100%" height="100%" viewBox="0 0 1200 900" version="1.1" xmlns="http://www.w3.org/2000/svg" xmlns:xlink="http://www.w3.org/1999/xlink" xml:space="preserve" xmlns:serif="http://www.serif.com/" style="fill-rule:evenodd;clip-rule:evenodd;stroke-linejoin:round;stroke-miterlimit:2;">
    <rect x="0" y="0" width="1200" height="900" style="fill:rgb(40,184,235);"/>
    <g transform="matrix(4.76948,0,0,4.76948,294.754,144.992)">
        <path d="M73.8,50.8L85.1,50.8L85.1,62.3L90.8,62.3C93.4,62.3 96.1,61.8 98.6,61C99.8,60.6 101.2,60 102.4,59.3C100.8,57.2 100,54.6 99.8,52C99.5,48.5 100.2,43.9 102.6,41.2L103.8,39.8L105.2,40.9C108.8,43.8 111.7,47.7 112.3,52.3C116.6,51 121.6,51.3 125.4,53.5L126.9,54.4L126.1,56C122.9,62.2 116.2,64.2 109.7,63.8C99.9,88.1 78.7,99.6 52.9,99.6C39.6,99.6 27.4,94.6 20.4,82.8L20.3,82.6L19.3,80.5C16.9,75.3 16.2,69.6 16.7,63.9L16.9,62.2L26.5,62.2L26.5,50.8L37.8,50.8L37.8,39.6L60.3,39.6L60.3,28.3L73.8,28.3L73.8,50.8Z" style="fill:rgb(58,77,84);"/>
    </g>
    <g transform="matrix(4.76948,0,0,4.76948,294.754,144.992)">
        <path d="M110.4,55.1C111.2,49.2 106.8,44.6 104,42.4C100.9,46 100.4,55.6 105.3,59.6C102.5,62 96.8,64.3 90.8,64.3L18.6,64.3C18,70.5 19.1,76.2 21.6,81.1L22.4,82.6C22.9,83.5 23.5,84.3 24.1,85.2C27.1,85.4 29.8,85.5 32.3,85.4C37.2,85.3 41.2,84.7 44.3,83.7C44.8,83.5 45.2,83.8 45.4,84.2C45.6,84.7 45.3,85.1 44.9,85.3C44.5,85.4 44.1,85.6 43.6,85.7C41.2,86.4 38.6,86.8 35.3,87L34.7,87C33.4,87.1 32,87.1 30.5,87.1C28.9,87.1 27.4,87.1 25.6,87C31.6,93.8 41,97.8 52.8,97.8C77.8,97.8 99,86.7 108.3,61.9C115,62.6 121.4,60.9 124.3,55.2C119.8,52.5 113.8,53.4 110.4,55.1Z" style="fill:rgb(0,170,218);fill-rule:nonzero;"/>
    </g>
    <g transform="matrix(4.76948,0,0,4.76948,294.754,144.992)">
        <path d="M110.4,55.1C111.2,49.2 106.8,44.6 104,42.4C100.9,46 100.4,55.6 105.3,59.6C102.5,62 96.8,64.3 90.8,64.3L22.8,64.3C22.5,73.8 26,81 32.3,85.3C37.2,85.2 41.2,84.6 44.3,83.6C44.8,83.4 45.2,83.7 45.4,84.1C45.6,84.6 45.3,85 44.9,85.2C44.5,85.3 44.1,85.5 43.6,85.6C41.2,86.3 38.4,86.8 35.1,87L35,86.9C43.5,91.3 55.8,91.2 70,85.8C85.8,79.7 100.6,68.1 110.9,54.9C110.7,55 110.5,55 110.4,55.1Z" style="fill:rgb(40,184,235);fill-rule:nonzero;"/>
    </g>
    <g transform="matrix(4.76948,0,0,4.76948,294.754,144.992)">
        <path d="M18.7,71.8C19.1,75.1 20.1,78.2 21.6,81.1L22.4,82.6C22.9,83.5 23.5,84.3 24.1,85.2C27.1,85.4 29.8,85.5 32.3,85.4C37.2,85.3 41.2,84.7 44.3,83.7C44.8,83.5 45.2,83.8 45.4,84.2C45.6,84.7 45.3,85.1 44.9,85.3C44.5,85.4 44.1,85.6 43.6,85.7C41.2,86.4 38.4,86.9 35.1,87.1L34.7,87.1C33.4,87.2 32,87.2 30.6,87.2C29,87.2 27.4,87.2 25.7,87.1C31.7,93.9 41.2,97.9 53,97.9C74.4,97.9 93,89.8 103.8,71.9L18.7,71.9L18.7,71.8Z" style="fill:rgb(2,139,184);fill-rule:nonzero;"/>
    </g>
    <g transform="matrix(4.76948,0,0,4.76948,294.754,144.992)">
        <path d="M23.5,71.8C24.8,77.6 27.8,82.2 32.3,85.3C37.2,85.2 41.2,84.6 44.3,83.6C44.8,83.4 45.2,83.7 45.4,84.1C45.6,84.6 45.3,85 44.9,85.2C44.5,85.3 44.1,85.5 43.6,85.6C41.2,86.3 38.4,86.8 35,87C43.5,91.4 55.8,91.3 69.9,85.9C78.4,82.6 86.7,77.7 94.1,71.8L23.5,71.8Z" style="fill:rgb(1,155,198);fill-rule:nonzero;"/>
    </g>
    <g transform="matrix(4.76948,0,0,4.76948,294.754,144.992)">
        <path d="M28.4,52.7L38.2,52.7L38.2,62.5L28.4,62.5L28.4,52.7ZM29.2,53.5L30,53.5L30,61.6L29.2,61.6L29.2,53.5ZM30.6,53.5L31.4,53.5L31.4,61.6L30.6,61.6L30.6,53.5ZM32.1,53.5L32.9,53.5L32.9,61.6L32.1,61.6L32.1,53.5ZM33.6,53.5L34.4,53.5L34.4,61.6L33.6,61.6L33.6,53.5ZM35.1,53.5L35.9,53.5L35.9,61.6L35.1,61.6L35.1,53.5ZM36.6,53.5L37.4,53.5L37.4,61.6L36.6,61.6L36.6,53.5ZM39.6,41.5L49.4,41.5L49.4,51.3L39.6,51.3L39.6,41.5ZM40.5,42.3L41.3,42.3L41.3,50.4L40.5,50.4L40.5,42.3ZM41.9,42.3L42.7,42.3L42.7,50.4L41.9,50.4L41.9,42.3ZM43.4,42.3L44.2,42.3L44.2,50.4L43.4,50.4L43.4,42.3ZM44.9,42.3L45.7,42.3L45.7,50.4L44.9,50.4L44.9,42.3ZM46.3,42.3L47.1,42.3L47.1,50.4L46.3,50.4L46.3,42.3ZM47.8,42.3L48.6,42.3L48.6,50.4L47.8,50.4L47.8,42.3Z" style="fill:rgb(0,172,211);"/>
    </g>
    <g transform="matrix(4.76948,0,0,4.76948,294.754,144.992)">
        <path d="M39.6,52.7L49.4,52.7L49.4,62.5L39.6,62.5L39.6,52.7ZM40.5,53.5L41.3,53.5L41.3,61.6L40.5,61.6L40.5,53.5ZM41.9,53.5L42.7,53.5L42.7,61.6L41.9,61.6L41.9,53.5ZM43.4,53.5L44.2,53.5L44.2,61.6L43.4,61.6L43.4,53.5ZM44.9,53.5L45.7,53.5L45.7,61.6L44.9,61.6L44.9,53.5ZM46.3,53.5L47.1,53.5L47.1,61.6L46.3,61.6L46.3,53.5ZM47.8,53.5L48.6,53.5L48.6,61.6L47.8,61.6L47.8,53.5Z" style="fill:rgb(35,194,238);"/>
    </g>
    <g transform="matrix(4.76948,0,0,4.76948,294.754,144.992)">
        <path d="M50.9,52.7L60.7,52.7L60.7,62.5L50.9,62.5L50.9,52.7ZM51.7,53.5L52.5,53.5L52.5,61.6L51.7,61.6L51.7,53.5ZM53.2,53.5L54,53.5L54,61.6L53.2,61.6L53.2,53.5ZM54.7,53.5L55.5,53.5L55.5,61.6L54.7,61.6L54.7,53.5ZM56.1,53.5L56.9,53.5L56.9,61.6L56.1,61.6L56.1,53.5ZM57.6,53.5L58.4,53.5L58.4,61.6L57.6,61.6L57.6,53.5ZM59.1,53.5L59.9,53.5L59.9,61.6L59.1,61.6L59.1,53.5Z" style="fill:rgb(0,172,211);"/>
    </g>
    <g transform="matrix(4.76948,0,0,4.76948,294.754,144.992)">
        <path d="M50.9,41.5L60.7,41.5L60.7,51.3L50.9,51.3L50.9,41.5ZM51.7,42.3L52.5,42.3L52.5,50.4L51.7,50.4L51.7,42.3ZM53.2,42.3L54,42.3L54,50.4L53.2,50.4L53.2,42.3ZM54.7,42.3L55.5,42.3L55.5,50.4L54.7,50.4L54.7,42.3ZM56.1,42.3L56.9,42.3L56.9,50.4L56.1,50.4L56.1,42.3ZM57.6,42.3L58.4,42.3L58.4,50.4L57.6,50.4L57.6,42.3ZM59.1,42.3L59.9,42.3L59.9,50.4L59.1,50.4L59.1,42.3ZM62.2,52.7L72,52.7L72,62.5L62.2,62.5L62.2,52.7ZM63,53.5L63.8,53.5L63.8,61.6L63,61.6L63,53.5ZM64.5,53.5L65.3,53.5L65.3,61.6L64.5,61.6L64.5,53.5ZM65.9,53.5L66.7,53.5L66.7,61.6L65.9,61.6L65.9,53.5ZM67.4,53.5L68.2,53.5L68.2,61.6L67.4,61.6L67.4,53.5ZM68.9,53.5L69.7,53.5L69.7,61.6L68.9,61.6L68.9,53.5ZM70.4,53.5L71.2,53.5L71.2,61.6L70.4,61.6L70.4,53.5Z" style="fill:rgb(35,194,238);"/>
    </g>
    <g transform="matrix(4.76948,0,0,4.76948,294.754,144.992)">
        <path d="M62.2,41.5L72,41.5L72,51.3L62.2,51.3L62.2,41.5ZM63,42.3L63.8,42.3L63.8,50.4L63,50.4L63,42.3ZM64.5,42.3L65.3,42.3L65.3,50.4L64.5,50.4L64.5,42.3ZM65.9,42.3L66.7,42.3L66.7,50.4L65.9,50.4L65.9,42.3ZM67.4,42.3L68.2,42.3L68.2,50.4L67.4,50.4L67.4,42.3ZM68.9,42.3L69.7,42.3L69.7,50.4L68.9,50.4L68.9,42.3ZM70.4,42.3L71.2,42.3L71.2,50.4L70.4,50.4L70.4,42.3Z" style="fill:rgb(0,172,211);"/>
    </g>
    <g transform="matrix(4.76948,0,0,4.76948,294.754,144.992)">
        <path d="M62.2,30.2L72,30.2L72,40L62.2,40L62.2,30.2ZM63,31L63.8,31L63.8,39.1L63,39.1L63,31ZM64.5,31L65.3,31L65.3,39.1L64.5,39.1L64.5,31ZM65.9,31L66.7,31L66.7,39.1L65.9,39.1L65.9,31ZM67.4,31L68.2,31L68.2,39.1L67.4,39.1L67.4,31ZM68.9,31L69.7,31L69.7,39.1L68.9,39.1L68.9,31ZM70.4,31L71.2,31L71.2,39.1L70.4,39.1L70.4,31Z" style="fill:rgb(35,194,238);"/>
    </g>
    <g transform="matrix(4.76948,0,0,4.76948,294.754,144.992)">
        <path d="M73.5,52.7L83.3,52.7L83.3,62.5L73.5,62.5L73.5,52.7ZM74.3,53.5L75.1,53.5L75.1,61.6L74.3,61.6L74.3,53.5ZM75.7,53.5L76.5,53.5L76.5,61.6L75.7,61.6L75.7,53.5ZM77.2,53.5L78,53.5L78,61.6L77.2,61.6L77.2,53.5ZM78.7,53.5L79.5,53.5L79.5,61.6L78.7,61.6L78.7,53.5ZM80.2,53.5L81,53.5L81,61.6L80.2,61.6L80.2,53.5ZM81.7,53.5L82.5,53.5L82.5,61.6L81.7,61.6L81.7,53.5Z" style="fill:rgb(0,172,211);"/>
    </g>
    <g transform="matrix(4.76948,0,0,4.76948,294.754,144.992)">
        <path d="M48.8,78.3C50.3,78.3 51.5,79.5 51.5,81C51.5,82.5 50.3,83.7 48.8,83.7C47.3,83.7 46.1,82.5 46.1,81C46.1,79.5 47.3,78.3 48.8,78.3" style="fill:rgb(212,238,241);"/>
    </g>
    <g transform="matrix(4.76948,0,0,4.76948,294.754,144.992)">
        <path d="M48.8,79.1C49,79.1 49.3,79.1 49.5,79.2C49.3,79.3 49.1,79.6 49.1,79.9C49.1,80.3 49.5,80.7 49.9,80.7C50.2,80.7 50.5,80.5 50.6,80.3C50.7,80.5 50.7,80.8 50.7,81C50.7,82.1 49.8,82.9 48.8,82.9C47.7,82.9 46.9,82 46.9,81C46.9,80 47.7,79.1 48.8,79.1M1.1,72.8L126.5,72.8C123.8,72.1 117.9,71.2 118.8,67.6C113.8,73.3 101.9,71.6 98.8,68.8C95.4,73.7 75.8,71.8 74.5,68C70.3,73 57.2,73 53,68C51.6,71.8 32,73.7 28.7,68.8C25.7,71.6 13.7,73.3 8.7,67.6C9.8,71.1 3.8,72.1 1.1,72.8" style="fill:rgb(58,77,84);"/>
    </g>
    <g transform="matrix(4.76948,0,0,4.76948,294.754,144.992)">
        <path d="M56,97.8C49.3,94.6 45.7,90.3 43.6,85.6C41.1,86.3 38.1,86.8 34.7,87C33.4,87.1 32,87.1 30.6,87.1C28.9,87.1 27.2,87.1 25.4,87C31.4,93 39,97.7 52.9,97.8L56,97.8Z" style="fill:rgb(191,219,224);fill-rule:nonzero;"/>
    </g>
    <g transform="matrix(4.76948,0,0,4.76948,294.754,144.992)">
        <path d="M46.1,89.9C45.2,88.6 44.3,87.1 43.6,85.6C41.1,86.3 38.1,86.8 34.7,87C37,88.2 40.4,89.4 46.1,89.9Z" style="fill:rgb(212,238,241);fill-rule:nonzero;"/>
    </g>
</svg>
